src/shared/assets/feed/icon/icon-search-solid.svg

<svg width="24" height="24" viewBox="0 0 24 24" fill="none" xmlns="http://www.w3.org/2000/svg">
<path d="M18.3319 16.4466C19.6196 14.684 20.1948 12.5005 19.9425 10.3323C19.6902 8.16413 18.6291 6.17098 16.9712 4.75117C15.3132 3.33135 13.1806 2.58945 10.9994 2.6737C8.81819 2.75796 6.74913 3.66217 5.20565 5.20565C3.66217 6.74913 2.75796 8.81819 2.6737 10.9994C2.58945 13.1806 3.33135 15.3132 4.75117 16.9712C6.17098 18.6291 8.16413 19.6902 10.3323 19.9425C12.5005 20.1948 14.684 19.6196 16.4466 18.3319L19.0572 20.9426C19.3087 21.1854 19.6455 21.3198 19.9951 21.3168C20.3447 21.3138 20.6791 21.1735 20.9263 20.9263C21.1735 20.6791 21.3138 20.3447 21.3168 19.9951C21.3198 19.6455 21.1854 19.3087 20.9426 19.0572L18.3319 16.4466ZM15.5759 7.09056C16.7475 8.26212 17.3332 9.67634 17.3332 11.3332C17.3332 12.9901 16.7475 14.4043 15.5759 15.5759C14.4043 16.7475 12.9901 17.3332 11.3332 17.3332C9.67634 17.3332 8.26212 16.7475 7.09056 15.5759C5.91901 14.4043 5.33323 12.9901 5.33323 11.3332C5.33323 9.67634 5.91901 8.26212 7.09056 7.09056C8.26212 5.91901 9.67634 5.33323 11.3332 5.33323C12.9901 5.33323 14.4043 5.91901 15.5759 7.09056Z" fill="black"/>
</svg>

<svg xmlns="http://www.w3.org/2000/svg" fill="none" viewBox="0 0 24 24"><path fill="#000" d="M18.332 16.447a8.667 8.667 0 1 0-1.885 1.885l2.61 2.61a1.334 1.334 0 0 0 1.886-1.885zM15.576 7.09q1.757 1.756 1.757 4.242t-1.757 4.243-4.243 1.757q-2.485 0-4.242-1.757-1.758-1.758-1.758-4.243T7.091 7.09t4.242-1.758 4.243 1.758"/></svg>
